public/assets/trusts-llama/bis.svg

<svg fill="none" height="25" viewBox="0 0 100 25" width="100" xmlns="http://www.w3.org/2000/svg"><g fill="#fff"><path d="m18.1204.255127v4.226733l-7.4643 7.35674h-10.6023891c.0487021-.2346.0566231-.4753.0930031-.7119.727888-4.74774 5.314666-7.90615 9.541176-9.40936 2.69061-.957336 5.57491-1.421507 8.43251-1.462213z"/><path d="m18.1204 20.0725v4.1684c-1.7706.0006-3.5562-.2011-5.2848-.5649-5.59102-1.1764-12.203334-4.6906-12.7818891-11.0185h10.6023891z"/><path d="m36.9496 11.8381h-10.5437l-7.464-7.38576v-4.153812c.0258-.041585.0584-.040414.1012-.045392.2755-.032214.7622.013764 1.0585.029578 4.392.232818 9.2716 1.615956 12.7265 4.389566 2.1954 1.76267 3.9988 4.26188 4.1215 7.16582z"/><path d="m36.9496 12.6575c-.0537 1.6279-.6889 3.1994-1.6066 4.5257-2.1913 3.1678-6.1095 5.1905-9.7665 6.1719-2.1502.5769-4.4063.8832-6.6346.8858v-4.1391l7.4933-7.4443z"/><path d="m45.5105 5.89109v-5.134036h1.6993c1.2003 0 1.7933.462786 1.7933 1.410056 0 .57848-.3543.99065-.9256 1.09188.7159.09401 1.1425.54233 1.1425 1.20759 0 .92557-.6002 1.42451-1.721 1.42451zm.4917-.47725h1.4968c.7882 0 1.2076-.33263 1.2076-.94726 0-.58572-.4483-.93281-1.2076-.93281h-1.4968zm0-2.35732h1.2076c.8243 0 1.2799-.31816 1.2799-.88941 0-.62187-.4266-.93281-1.2799-.93281h-1.2076z"/><path d="m49.7072 5.89109 1.8656-5.134036h.6508l1.8728 5.134036h-.5351l-.5496-1.54021h-2.2199l-.5495 1.54021zm1.2509-2.01746h1.8873l-.9472-2.67548z"/><path d="m54.8459.757054h.6942l2.7405 4.562786v-4.562786h.4917v5.134036h-.7158l-2.7189-4.5194v4.5194h-.4917z"/><path d="m60.022.757054h.4917v2.747796l2.5164-2.747796h.6219l-2.0392 2.227156 2.1838 2.90688h-.5929l-1.9163-2.54533-.7737.8388v1.70653h-.4917z"/><path d="m68.4648 6.00679c-1.4317 0-2.3067-1.02681-2.3067-2.67549 0-1.66314.875-2.689943 2.3067-2.689943 1.4318 0 2.3067 1.026803 2.3067 2.689943 0 1.64868-.8749 2.67549-2.3067 2.67549zm-1.7861-2.67549c0 1.35221.6725 2.19101 1.7861 2.19101s1.7861-.8388 1.7861-2.19101c0-1.36666-.6725-2.20546-1.7861-2.20546s-1.7861.8388-1.7861 2.20546z"/><path d="m71.6312.757054h3.16v.477246h-2.6683v1.89453h2.5381v.47002h-2.5381v2.29224h-.4917z"/><path d="m45.5105 9.79585h.4917v5.13405h-.4917z"/><path d="m47.3536 9.79585h.6941l2.7406 4.56275v-4.56275h.4917v5.13405h-.7158l-2.7189-4.5194v4.5194h-.4917z"/><path d="m55.9261 9.79585v.47725h-1.6487v4.6568h-.4917v-4.6568h-1.6487v-.47725z"/><path d="m56.7878 9.79585h3.16v.47725h-2.6683v1.8511h2.5815v.4701h-2.5815v1.8583h2.7261v.4773h-3.2178z"/><path d="m62.947 9.79585c1.0919 0 1.7499.57845 1.7499 1.53295 0 .6147-.4121 1.0775-.9183 1.2148.5134.0796.7665.3544.8099.875l.1374 1.5113h-.499l-.1229-1.4679c-.0434-.4845-.3905-.658-1.2004-.658h-1.3377v2.1259h-.4917v-5.13405zm-1.3811 2.53085h1.3811c.7882 0 1.2293-.3615 1.2293-1.0123 0-.6725-.4194-1.0413-1.2293-1.0413h-1.3811z"/><path d="m65.7631 9.79585h.6941l2.7406 4.56275v-4.56275h.4917v5.13405h-.7159l-2.7188-4.5194v4.5194h-.4917z"/><path d="m70.447 14.9299 1.8656-5.13405h.6508l1.8728 5.13405h-.5351l-.5496-1.5402h-2.2199l-.5495 1.5402zm1.2509-2.0175h1.8873l-.9472-2.6755z"/><path d="m78.3395 9.79585v.47725h-1.6487v4.6568h-.4917v-4.6568h-1.6487v-.47725z"/><path d="m79.2012 9.79585h.4917v5.13405h-.4917z"/><path d="m82.941 15.0456c-1.4317 0-2.3067-1.0268-2.3067-2.6755 0-1.6631.875-2.68995 2.3067-2.68995s2.3067 1.02685 2.3067 2.68995c0 1.6487-.875 2.6755-2.3067 2.6755zm-1.7861-2.6755c0 1.3522.6725 2.191 1.7861 2.191s1.7861-.8388 1.7861-2.191c0-1.3667-.6725-2.2055-1.7861-2.2055s-1.7861.8388-1.7861 2.2055z"/><path d="m86.2063 9.79585h.6941l2.7406 4.56275v-4.56275h.4917v5.13405h-.7159l-2.7188-4.5194v4.5194h-.4917z"/><path d="m90.8902 14.9299 1.8656-5.13405h.6508l1.8728 5.13405h-.5351l-.5495-1.5402h-2.22l-.5495 1.5402zm1.2509-2.0175h1.8873l-.9472-2.6755z"/><path d="m96.0289 14.9299v-5.13405h.4917v4.65675h2.6321v.4773z"/><path d="m45.7781 22.3128c.0867.7303.658 1.2582 1.5112 1.2582.7159 0 1.2293-.3327 1.2293-.8822 0-.5423-.47-.8894-1.5402-1.1642-.94-.2386-1.6053-.6508-1.6053-1.4173 0-.8533.6797-1.3884 1.6848-1.3884 1.0485 0 1.7861.687 1.8584 1.6126l-.5134.0361c-.0651-.6942-.6002-1.1642-1.3739-1.1642-.6725 0-1.1425.3471-1.1425.9039 0 .6002.6291.8099 1.4607 1.0485 1.0196.2892 1.6848.7448 1.6848 1.4896 0 .8822-.8243 1.4101-1.786 1.4101-1.0992 0-1.9235-.7015-1.9814-1.7066z"/><path d="m50.0652 18.8346h3.16v.4773h-2.6683v1.8511h2.5815v.4701h-2.5815v1.8583h2.7261v.4773h-3.2178z"/><path d="m57.6562 18.8346v.4773h-1.6487v4.6568h-.4917v-4.6568h-1.6487v-.4773z"/><path d="m61.9143 18.8346v.4773h-1.6487v4.6568h-.4917v-4.6568h-1.6487v-.4773z"/><path d="m62.776 23.9687v-5.1341h.4917v4.6568h2.6321v.4773z"/><path d="m66.9 18.8346h3.1599v.4773h-2.6682v1.8511h2.5815v.4701h-2.5815v1.8583h2.7261v.4773h-3.2178z"/><path d="m71.1863 18.8346h.7087l1.7571 4.599 1.7572-4.599h.7086v5.1341h-.4917v-4.2302l-1.6559 4.2302h-.6364l-1.6559-4.2302v4.2302h-.4917z"/><path d="m77.3723 18.8346h3.1599v.4773h-2.6682v1.8511h2.5814v.4701h-2.5814v1.8583h2.7261v.4773h-3.2178z"/><path d="m81.6021 18.8346h.6942l2.7406 4.5628v-4.5628h.4917v5.1341h-.7159l-2.7189-4.5194v4.5194h-.4917z"/><path d="m90.1746 18.8346v.4773h-1.6486v4.6568h-.4918v-4.6568h-1.6486v-.4773z"/><path d="m91.1627 22.3128c.0868.7303.658 1.2582 1.5113 1.2582.7158 0 1.2293-.3327 1.2293-.8822 0-.5423-.4701-.8894-1.5403-1.1642-.94-.2386-1.6052-.6508-1.6052-1.4173 0-.8533.6797-1.3884 1.6848-1.3884 1.0485 0 1.786.687 1.8584 1.6126l-.5134.0361c-.0651-.6942-.6002-1.1642-1.3739-1.1642-.6725 0-1.1425.3471-1.1425.9039 0 .6002.6291.8099 1.4606 1.0485 1.0196.2892 1.6849.7448 1.6849 1.4896 0 .8822-.8244 1.4101-1.7861 1.4101-1.0991 0-1.9235-.7015-1.9813-1.7066z"/></g></svg>

<svg xmlns="http://www.w3.org/2000/svg" width="100" height="25" viewBox="0 0 100 25" fill="none">
  <path d="M18.1204 0.255127V4.48186L10.6561 11.8386H0.0537109C0.102413 11.604 0.110334 11.3633 0.146714 11.1267C0.874602 6.37896 5.46138 3.22055 9.68789 1.71734C12.3785 0.760004 15.2628 0.295833 18.1204 0.255127Z" fill="white"/>
  <path d="M18.1204 20.0725V24.2409C16.3498 24.2415 14.5642 24.0398 12.8356 23.676C7.24458 22.4996 0.632266 18.9854 0.0537109 12.6575H10.6561L18.1204 20.0725Z" fill="white"/>
  <path d="M36.9496 11.8381H26.4059L18.9419 4.45234V0.298528C18.9677 0.256943 19.0003 0.258114 19.0431 0.253136C19.3186 0.220922 19.8053 0.2669 20.1016 0.282714C24.4936 0.515532 29.3732 1.89867 32.8281 4.67228C35.0235 6.43495 36.8269 8.93416 36.9496 11.8381Z" fill="white"/>
  <path d="M36.9496 12.6575C36.8959 14.2854 36.2607 15.8569 35.343 17.1832C33.1517 20.351 29.2335 22.3737 25.5765 23.3551C23.4263 23.932 21.1702 24.2383 18.9419 24.2409V20.1018L26.4352 12.6575H36.9496Z" fill="white"/>
  <path d="M45.5105 5.89109V0.757054H47.2098C48.4101 0.757054 49.0031 1.21984 49.0031 2.16711C49.0031 2.74559 48.6488 3.15776 48.0775 3.25899C48.7934 3.353 49.22 3.80132 49.22 4.46658C49.22 5.39215 48.6198 5.89109 47.499 5.89109H45.5105ZM46.0022 5.41384H47.499C48.2872 5.41384 48.7066 5.08121 48.7066 4.46658C48.7066 3.88086 48.2583 3.53377 47.499 3.53377H46.0022V5.41384ZM46.0022 3.05652H47.2098C48.0341 3.05652 48.4897 2.73836 48.4897 2.16711C48.4897 1.54524 48.0631 1.2343 47.2098 1.2343H46.0022V3.05652Z" fill="white"/>
  <path d="M49.7072 5.89109L51.5728 0.757054H52.2236L54.0964 5.89109H53.5613L53.0117 4.35088H50.7918L50.2423 5.89109H49.7072ZM50.9581 3.87363H52.8454L51.8982 1.19815L50.9581 3.87363Z" fill="white"/>
  <path d="M54.8459 0.757054H55.5401L58.2806 5.31984V0.757054H58.7723V5.89109H58.0565L55.3376 1.37169V5.89109H54.8459V0.757054Z" fill="white"/>
  <path d="M60.022 0.757054H60.5137V3.50485L63.0301 0.757054H63.652L61.6128 2.98421L63.7966 5.89109H63.2037L61.2874 3.34576L60.5137 4.18456V5.89109H60.022V0.757054Z" fill="white"/>
  <path d="M68.4648 6.00679C67.0331 6.00679 66.1581 4.97998 66.1581 3.3313C66.1581 1.66816 67.0331 0.641357 68.4648 0.641357C69.8966 0.641357 70.7715 1.66816 70.7715 3.3313C70.7715 4.97998 69.8966 6.00679 68.4648 6.00679ZM66.6787 3.3313C66.6787 4.68351 67.3512 5.52231 68.4648 5.52231C69.5784 5.52231 70.2509 4.68351 70.2509 3.3313C70.2509 1.96464 69.5784 1.12584 68.4648 1.12584C67.3512 1.12584 66.6787 1.96464 66.6787 3.3313Z" fill="white"/>
  <path d="M71.6312 0.757054H74.7912V1.2343H72.1229V3.12883H74.661V3.59885H72.1229V5.89109H71.6312V0.757054Z" fill="white"/>
  <path d="M45.5105 9.79585H46.0022V14.9299H45.5105V9.79585Z" fill="white"/>
  <path d="M47.3536 9.79585H48.0477L50.7883 14.3586V9.79585H51.28V14.9299H50.5642L47.8453 10.4105V14.9299H47.3536V9.79585Z" fill="white"/>
  <path d="M55.9261 9.79585V10.2731H54.2774V14.9299H53.7857V10.2731H52.137V9.79585H55.9261Z" fill="white"/>
  <path d="M56.7878 9.79585H59.9478V10.2731H57.2795V12.1242H59.861V12.5943H57.2795V14.4526H60.0056V14.9299H56.7878V9.79585Z" fill="white"/>
  <path d="M62.947 9.79585C64.0389 9.79585 64.6969 10.3743 64.6969 11.3288C64.6969 11.9435 64.2848 12.4063 63.7786 12.5436C64.292 12.6232 64.5451 12.898 64.5885 13.4186L64.7259 14.9299H64.2269L64.104 13.462C64.0606 12.9775 63.7135 12.804 62.9036 12.804H61.5659V14.9299H61.0742V9.79585H62.947ZM61.5659 12.3267H62.947C63.7352 12.3267 64.1763 11.9652 64.1763 11.3144C64.1763 10.6419 63.7569 10.2731 62.947 10.2731H61.5659V12.3267Z" fill="white"/>
  <path d="M65.7631 9.79585H66.4572L69.1978 14.3586V9.79585H69.6895V14.9299H68.9736L66.2548 10.4105V14.9299H65.7631V9.79585Z" fill="white"/>
  <path d="M70.447 14.9299L72.3126 9.79585H72.9634L74.8362 14.9299H74.3011L73.7515 13.3897H71.5316L70.9821 14.9299H70.447ZM71.6979 12.9124H73.5852L72.638 10.2369L71.6979 12.9124Z" fill="white"/>
  <path d="M78.3395 9.79585V10.2731H76.6908V14.9299H76.1991V10.2731H74.5504V9.79585H78.3395Z" fill="white"/>
  <path d="M79.2012 9.79585H79.6929V14.9299H79.2012V9.79585Z" fill="white"/>
  <path d="M82.941 15.0456C81.5093 15.0456 80.6343 14.0188 80.6343 12.3701C80.6343 10.707 81.5093 9.68015 82.941 9.68015C84.3727 9.68015 85.2477 10.707 85.2477 12.3701C85.2477 14.0188 84.3727 15.0456 82.941 15.0456ZM81.1549 12.3701C81.1549 13.7223 81.8274 14.5611 82.941 14.5611C84.0546 14.5611 84.7271 13.7223 84.7271 12.3701C84.7271 11.0034 84.0546 10.1646 82.941 10.1646C81.8274 10.1646 81.1549 11.0034 81.1549 12.3701Z" fill="white"/>
  <path d="M86.2063 9.79585H86.9004L89.641 14.3586V9.79585H90.1327V14.9299H89.4168L86.698 10.4105V14.9299H86.2063V9.79585Z" fill="white"/>
  <path d="M90.8902 14.9299L92.7558 9.79585H93.4066L95.2794 14.9299H94.7443L94.1948 13.3897H91.9748L91.4253 14.9299H90.8902ZM92.1411 12.9124H94.0284L93.0812 10.2369L92.1411 12.9124Z" fill="white"/>
  <path d="M96.0289 14.9299V9.79585H96.5206V14.4526H99.1527V14.9299H96.0289Z" fill="white"/>
  <path d="M45.7781 22.3128C45.8648 23.0431 46.4361 23.571 47.2893 23.571C48.0052 23.571 48.5186 23.2383 48.5186 22.6888C48.5186 22.1465 48.0486 21.7994 46.9784 21.5246C46.0384 21.286 45.3731 20.8738 45.3731 20.1073C45.3731 19.254 46.0528 18.7189 47.0579 18.7189C48.1064 18.7189 48.844 19.4059 48.9163 20.3315L48.4029 20.3676C48.3378 19.6734 47.8027 19.2034 47.029 19.2034C46.3565 19.2034 45.8865 19.5505 45.8865 20.1073C45.8865 20.7075 46.5156 20.9172 47.3472 21.1558C48.3668 21.445 49.032 21.9006 49.032 22.6454C49.032 23.5276 48.2077 24.0555 47.246 24.0555C46.1468 24.0555 45.3225 23.354 45.2646 22.3489L45.7781 22.3128Z" fill="white"/>
  <path d="M50.0652 18.8346H53.2252V19.3119H50.5569V21.163H53.1384V21.6331H50.5569V23.4914H53.283V23.9687H50.0652V18.8346Z" fill="white"/>
  <path d="M57.6562 18.8346V19.3119H56.0075V23.9687H55.5158V19.3119H53.8671V18.8346H57.6562Z" fill="white"/>
  <path d="M61.9143 18.8346V19.3119H60.2656V23.9687H59.7739V19.3119H58.1252V18.8346H61.9143Z" fill="white"/>
  <path d="M62.776 23.9687V18.8346H63.2677V23.4914H65.8998V23.9687H62.776Z" fill="white"/>
  <path d="M66.9 18.8346H70.0599V19.3119H67.3917V21.163H69.9732V21.6331H67.3917V23.4914H70.1178V23.9687H66.9V18.8346Z" fill="white"/>
  <path d="M71.1863 18.8346H71.895L73.6521 23.4336L75.4093 18.8346H76.1179V23.9687H75.6262V19.7385L73.9703 23.9687H73.3339L71.678 19.7385V23.9687H71.1863V18.8346Z" fill="white"/>
  <path d="M77.3723 18.8346H80.5322V19.3119H77.864V21.163H80.4454V21.6331H77.864V23.4914H80.5901V23.9687H77.3723V18.8346Z" fill="white"/>
  <path d="M81.6021 18.8346H82.2963L85.0369 23.3974V18.8346H85.5286V23.9687H84.8127L82.0938 19.4493V23.9687H81.6021V18.8346Z" fill="white"/>
  <path d="M90.1746 18.8346V19.3119H88.526V23.9687H88.0342V19.3119H86.3856V18.8346H90.1746Z" fill="white"/>
  <path d="M91.1627 22.3128C91.2495 23.0431 91.8207 23.571 92.674 23.571C93.3898 23.571 93.9033 23.2383 93.9033 22.6888C93.9033 22.1465 93.4332 21.7994 92.363 21.5246C91.423 21.286 90.7578 20.8738 90.7578 20.1073C90.7578 19.254 91.4375 18.7189 92.4426 18.7189C93.4911 18.7189 94.2286 19.4059 94.301 20.3315L93.7876 20.3676C93.7225 19.6734 93.1874 19.2034 92.4137 19.2034C91.7412 19.2034 91.2712 19.5505 91.2712 20.1073C91.2712 20.7075 91.9003 20.9172 92.7318 21.1558C93.7514 21.445 94.4167 21.9006 94.4167 22.6454C94.4167 23.5276 93.5923 24.0555 92.6306 24.0555C91.5315 24.0555 90.7071 23.354 90.6493 22.3489L91.1627 22.3128Z" fill="white"/>
</svg>
